src/assets/svg/icons/fa/nuevos/classic/light/gauge-simple-low classic light.svg

<svg xmlns="http://www.w3.org/2000/svg" viewBox="0 0 512 512"><!--! Font Awesome Pro 6.4.0 by @fontawesome - https://fontawesome.com License - https://fontawesome.com/license (Commercial License) Copyright 2023 Fonticons, Inc. --><path d="M256 480a224 224 0 1 0 0-448 224 224 0 1 0 0 448zM256 0a256 256 0 1 1 0 512A256 256 0 1 1 256 0zm0 384a32 32 0 1 0 0-64 32 32 0 1 0 0 64zm0 32c-35.3 0-64-28.7-64-64c0-18.6 7.9-35.3 20.5-47L129.9 151.6c-4.2-7.8-1.3-17.5 6.5-21.7s17.5-1.3 21.7 6.5l82.6 153.4c4.9-1.2 10-1.8 15.3-1.8c35.3 0 64 28.7 64 64s-28.7 64-64 64z"/></svg>

<svg xmlns="http://www.w3.org/2000/svg" viewBox="0 0 512 512"><path d="M256 416C220.7 416 192 387.3 192 352C192 333.4 199.9 316.7 212.5 305L129.9 151.6C125.7 143.8 128.6 134.1 136.4 129.9C144.2 125.7 153.9 128.6 158.1 136.4L240.7 289.8C245.6 288.6 250.7 288 256 288C291.3 288 320 316.7 320 352C320 387.3 291.3 416 256 416H256zM288 352C288 334.3 273.7 320 256 320C238.3 320 224 334.3 224 352C224 369.7 238.3 384 256 384C273.7 384 288 369.7 288 352zM256 512C114.6 512 0 397.4 0 256C0 114.6 114.6 0 256 0C397.4 0 512 114.6 512 256C512 397.4 397.4 512 256 512zM480 256C480 132.3 379.7 32 256 32C132.3 32 32 132.3 32 256C32 379.7 132.3 480 256 480C379.7 480 480 379.7 480 256z"/></svg>
